storage/app/icons/phosphoricons/bold/linkedin-logo-bold.svg

<svg xmlns="http://www.w3.org/2000/svg" fill="currentColor" viewBox="0 0 256 256"><path d="M216 20H40a20 20 0 0 0-20 20v176a20 20 0 0 0 20 20h176a20 20 0 0 0 20-20V40a20 20 0 0 0-20-20m-4 192H44V44h168Zm-100-36v-56a12 12 0 0 1 21.43-7.41A40 40 0 0 1 192 148v28a12 12 0 0 1-24 0v-28a16 16 0 0 0-32 0v28a12 12 0 0 1-24 0m-16-56v56a12 12 0 0 1-24 0v-56a12 12 0 0 1 24 0M68 80a16 16 0 1 1 16 16 16 16 0 0 1-16-16"/></svg>

<svg xmlns="http://www.w3.org/2000/svg" viewBox="0 0 256 256" fill="currentColor"><path d="M216,20H40A20,20,0,0,0,20,40V216a20,20,0,0,0,20,20H216a20,20,0,0,0,20-20V40A20,20,0,0,0,216,20Zm-4,192H44V44H212ZM112,176V120a12,12,0,0,1,21.43-7.41A40,40,0,0,1,192,148v28a12,12,0,0,1-24,0V148a16,16,0,0,0-32,0v28a12,12,0,0,1-24,0ZM96,120v56a12,12,0,0,1-24,0V120a12,12,0,0,1,24,0ZM68,80A16,16,0,1,1,84,96,16,16,0,0,1,68,80Z"/></svg>
